X:608
T:Blind Man's Reel
O:england
M:4/4
L:1/8
C:Trad.
S:Dawson Girdwood
R:Reel
K:D
A2zG|:FD (3DDD EDB,G,|A,DFA BAFD|CEGB cBAG|FAde fdAG|
F2 (3DDD EDB,G,|A,DFA BAFD|CEGB cBAG|1FdAF D2 AG:|2FdAF D2 de||
|:fdAc dAFA|(3BBA ^GB edcB|Acde fdgf|ecdf ecfe|
fdAc dAFA|(3BBA ^GB edcB|Afed cABc|1d2 dc d3 e:|2dedc d2 AG||
